src/assets/svg/heroku.svg

<?xml version="1.0" encoding="UTF-8" standalone="no" ?>
<svg width="256px" height="400px" viewBox="0 0 256 400" version="1.1" xmlns="http://www.w3.org/2000/svg" xmlns:xlink="http://www.w3.org/1999/xlink" preserveAspectRatio="xMidYMid">
    <g>
        <path d="M28.0830072,398.288737 L28.0830072,363.510203 C28.0830072,361.058265 26.2854652,360.000484 24.1663576,360.000484 C19.9182507,360.000484 14.6123625,361.058265 9.79516923,363.181433 L9.79516923,398.288794 L0,398.288794 L0,333.712732 L9.79516923,333.712732 L9.79516923,355.017134 C14.4506649,353.3045 20.0013294,351.836185 25.5529087,351.836185 C34.4511366,351.836185 37.7986999,357.306001 37.7986999,364.813218 L37.7986999,398.288794 L28.0830072,398.288794 L28.0830072,398.288737 L28.0830072,398.288737 Z M56.0820209,377.226481 C56.4081035,388.900499 58.6951982,391.187136 65.8763325,391.187136 C71.5100757,391.187136 77.8782051,389.308345 82.7776193,387.429954 L84.4098617,394.775931 C79.1843648,397.146562 72.8171504,399.430512 65.2268548,399.430512 C48.8964839,399.430512 46.3645557,390.45275 46.3645557,376.163325 C46.3645557,368.327796 46.9381019,361.223965 48.8151206,354.693224 C53.7127052,352.814833 60.2443618,351.836128 68.4876801,351.836128 C81.8805636,351.836128 85.9607406,359.266041 85.9607406,372.245761 L85.9607406,377.226424 L56.0820209,377.226424 L56.0820209,377.226481 L56.0820209,377.226481 Z M68.4877372,360.000484 C65.5529373,360.000484 60.8974417,360.08179 57.0611834,360.813489 C56.6547094,362.773587 56.1624123,365.46807 55.9989422,370.44879 L76.4085752,370.44879 C76.4085752,363.670985 75.1837216,360.000484 68.4877372,360.000484 L68.4877372,360.000484 L68.4877372,360.000484 Z M104.325425,363.181433 L104.325425,398.288794 L94.5284261,398.288794 L94.5284261,358.774258 C102.774489,354.285378 111.509189,352.896596 117.226069,352.48875 L117.226069,360.653049 C113.225425,360.979189 108.161683,361.468742 104.325425,363.181433 L104.325425,363.181433 L104.325425,363.181433 Z M143.103287,399.430512 C128.487323,399.430512 121.875275,392.247605 121.875275,375.837243 C121.875275,358.448176 130.610032,351.836128 143.103287,351.836128 C157.714792,351.836128 164.328613,359.019035 164.328613,375.429397 C164.328613,392.818521 155.592082,399.430512 143.103287,399.430512 L143.103287,399.430512 L143.103287,399.430512 Z M143.103287,360.000484 C135.590696,360.000484 131.428355,364.325838 131.428355,375.8373 C131.428355,388.411404 134.938531,391.187193 143.103287,391.187193 C150.612277,391.187193 154.777305,386.940459 154.777305,375.429454 C154.777305,362.855293 151.266271,360.000484 143.103287,360.000484 L143.103287,360.000484 L143.103287,360.000484 Z M211.592854,398.288737 L200.081449,398.288737 C197.388738,391.105372 193.631156,383.756766 187.834743,377.389494 L182.691467,377.389494 L182.691467,398.288737 L172.895383,398.288737 L172.895383,333.712732 L182.691467,333.712732 L182.691467,370.774816 L187.263884,370.774816 C192.24369,365.631083 196.079948,359.266098 198.775289,352.977903 L209.795312,352.977903 C206.041275,360.571343 201.224939,367.265097 195.835972,372.734913 C202.286323,380.89927 207.347435,389.553121 211.592854,398.288737 L211.592854,398.288737 L211.592854,398.288737 Z M229.955709,399.430512 C221.059254,399.430512 217.71169,393.962926 217.71169,386.451249 L217.71169,352.977903 L227.42561,352.977903 L227.42561,387.67473 C227.42561,390.126667 229.220465,391.187136 231.343175,391.187136 C235.588595,391.187136 241.38495,390.126667 246.203916,388.0035 L246.203916,352.977903 L256,352.977903 L256,392.328911 C244.407289,398.696583 235.507288,399.430512 229.955709,399.430512 L229.955709,399.430512 L229.955709,399.430512 Z" fill="#6762A6"></path>
        <g>
            <path d="M225.627557,317.252791 L30.2571363,317.252791 C13.5457249,317.252791 0,303.708212 0,286.998111 L0,30.2559898 C0,13.5457249 13.5457249,0 30.2571363,0 L225.627557,0 C242.336512,0 255.887314,13.5457249 255.887314,30.2559898 L255.887314,286.998111 C255.887314,303.708212 242.336512,317.252791 225.627557,317.252791 L225.627557,317.252791 L225.627557,317.252791 Z" fill="#6762A6"></path>
            <path d="M160.360824,273.600778 L160.360824,147.609797 C160.360824,147.609797 168.555281,117.460105 59.4165681,159.943821 C59.2169111,160.482518 59.2169111,43.4397441 59.2169111,43.4397441 L94.8765809,43.2209239 L94.8765809,118.211399 C94.8765809,118.211399 194.722969,78.8856711 194.722969,148.034825 L194.722969,273.601106 L160.360824,273.601106 L160.360824,273.600778 L160.360824,273.600778 Z M180.680804,88.6064645 L142.856026,88.6064645 C156.470869,71.9602406 168.795885,43.4394165 168.795885,43.4394165 L207.905249,43.4394165 C207.905249,43.4395803 201.210431,62.0255406 180.680804,88.6064645 L180.680804,88.6064645 L180.680804,88.6064645 Z M59.8643634,273.381958 L59.8643634,201.633986 L95.7415432,237.511166 L59.8643634,273.381958 L59.8643634,273.381958 Z" fill="#FFFFFF"></path>
        </g>
    </g>
</svg>

<svg xmlns="http://www.w3.org/2000/svg" width="255.887" height="317.253" viewBox="0 0 255.887 317.253" preserveAspectRatio="xMidYMid"><path d="M225.628 317.253H30.258C13.545 317.253 0 303.708 0 286.998V30.256C0 13.546 13.546 0 30.257 0h195.37c16.71 0 30.26 13.546 30.26 30.256v256.742c0 16.71-13.55 30.255-30.26 30.255z" fill="#6762a6"/><path d="M160.36 273.6V147.61s8.195-30.15-100.943 12.334c-.2.539-.2-116.504-.2-116.504l35.66-.22v74.991s99.846-39.325 99.846 29.824V273.6h-34.362zm20.32-184.994h-37.824c13.615-16.646 25.94-45.167 25.94-45.167h39.11s-6.696 18.587-27.225 45.167zM59.865 273.382v-71.748l35.878 35.877z" fill="#fff"/></svg>
